X: 7899
T: Con Cronin's
R: polka
M: 2/4
K: Amajor
|:E>F Ac|B>c BA|Fd c/d/e/c/|A>B c/B/A/F/|
E>F Ac|B>c BA|Fd c/d/e/c/|1 A>B c/B/A/F/:|2 A2 A2||
|:c>d ec|dc BA|c>d ec|dc B2|
c>d ec|dc BA|Fd c/d/e/c/|1 A2 A2:|2 A>B c/B/A/F/||

